X:153
T:Morisco,A. (p)1657.PLFD.154
M:3/2
L:1/4
Q:1/2=120
S:Playford, Dancing Master,Supplement to 3rd Ed.,1657
O:England
H:1657.
Z:Chris Partington.
K:Bb
F(D<F)|B2(B<d)(c>B)|c3F(D<F)|B2(B<d)c>B|f3g(f<d)|
e3g(f<d)|c3F(D<F)|(B<d)(f<d)(c>d)|B3:|
|:b(g<b)|a2(g<a)(g<=e)|f2(e<c)(d<=B)|c3g(G<=B)|
c3fB<c|A3G(F<A)|(B<G)(F<D)C<D|B,3:|
